X:660
T:Bourre in 2/4 #5
L:1/8
M:2/4
O:France
R:Bourre
Z:Richard Robinson 
%%TUNEURL: http://www.leeds.ac.uk/music/Info/RRTuneBk/gettune/000006fa.html
%%ID:000006fa
K:G
d2 e2| dc B/A/G | d2 e2 | dg f/e/d/c/ | \
d2 e2| dc B/A/G | cA d/c/B/A/ | GB G2 :|
[Ac][Ac] [Ac][G/B/][A/c/] | \
[Bd][Ad] [G/B/]A/G |\
[Ac][Ac] [Fc][F/B/]c/ | \
[Gd][Bg] [Bd]A/G/ | \
[Ac][Ac] [Ac][G/B/][A/c/] | \
[Bd][Ad] [G/B]A/G | \
cA [B/d/][A/c/][G/B/][F/A/] | \
GB G2:|
